Papirus/22x22/apps/bendy-and-the-ink-machine.svg

<svg width="22" height="22" version="1.1" xmlns="http://www.w3.org/2000/svg">
 <path d="m16 2.5c0 0.4090552-0.0014 0.7475518 0 1 0 1.6568542-2.238576 3-5 3-2.7614237 0-5-1.3431458-5-3 0.00172-0.2484262 0-0.5946424 0-1-3.1786586 1.758964-4.995146 5.3671222-5 9 0 5.522847 4.4771525 10 10 10 5.522847 0 10-4.477153 10-10-0.0014-3.6379005-1.816165-7.2400235-5-9z" style="opacity:.2"/>
 <path d="m16 2c0 0.4090552-0.0014 0.7475518 0 1 0 1.6568542-2.238576 3-5 3-2.7614237 0-5-1.3431458-5-3 0.0017185-0.2484262 0-0.5946424 0-1-3.1786586 1.758964-4.9951455 5.3671222-5 9 0 5.522847 4.4771525 10 10 10 5.522847 0 10-4.477153 10-10-0.001382-3.6379005-1.816165-7.2400235-5-9z" style="fill:#4f4f4f"/>
 <path d="m7 7.4999997c-2 0-3.4335938 2.0605473-3.4335938 2.0605473-0.3720725 0.935451-0.5642383 1.932725-0.5664062 2.939453 0 4.418278 3.581722 8 8 8s8-3.581722 8-8c-0.0016-0.75974-0.111439-1.515377-0.326172-2.244141 0 0-1.673828-2.7558593-3.673828-2.7558593-1-0.00391-4 2.0000003-4 2.0000003s-2.9960938-2.0000003-4-2.0000003zm-0.029297 3.0000003a2 3 0 0 1 0.9609376 0.345703 2 3 0 0 1 0.9648438 3.607422 2 3 0 0 1-0.4472656 1.109375 3 0.5 0 0 0-1.4492188-0.0625 3 0.5 0 0 0-1.4492188 0.0625 2 3 0 0 1-0.5507812-2.0625h2l-1.5957031-1.806641a2 3 0 0 1 1.5664061-1.193359zm8 0a2 3 0 0 1 0.960938 0.345703 2 3 0 0 1 0.964843 3.607422 2 3 0 0 1-0.447265 1.109375 3 0.5 0 0 0-1.449219-0.0625 3 0.5 0 0 0-1.449219 0.0625 2 3 0 0 1-0.550781-2.0625h2l-1.595703-1.806641a2 3 0 0 1 1.566406-1.193359zm-7.970703 6a4 1 0 0 0 1 0.660156v1.583985c-0.3666898-0.206746-0.7067134-0.450854-1-0.744141zm8 0v1.5c-0.293287 0.290995-0.63331 0.53406-1 0.740234v-1.580078a4 1 0 0 0 1-0.660156zm-6 0.865234a4 1 0 0 0 1 0.101563v1.945312c-0.3417758-0.05127-0.6764603-0.125506-1-0.230468zm4 0v1.802735c-0.324456 0.105792-0.657177 0.188038-1 0.240234v-1.941406a4 1 0 0 0 1-0.101563z" style="opacity:.2"/>
 <path d="m7 7c-2 0-3.4335938 2.0605469-3.4335938 2.0605469-0.3720725 0.935451-0.5642383 1.9327251-0.5664062 2.9394531 0 4.418278 3.581722 8 8 8s8-3.581722 8-8c-0.0016-0.75974-0.111439-1.515377-0.326172-2.2441406 0 0-1.673828-2.7558594-3.673828-2.7558594-1-0.0039062-4 2-4 2s-2.9960938-2-4-2zm-0.0292969 3a2 3 0 0 1 0.9609375 0.345703 2 3 0 0 1 0.9648438 3.607422 2 3 0 0 1-0.4472656 1.109375 3 0.5 0 0 0-1.4492188-0.0625 3 0.5 0 0 0-1.4492188 0.0625 2 3 0 0 1-0.5507812-2.0625h2l-1.5957031-1.806641a2 3 0 0 1 1.5664062-1.193359zm7.9999999 0a2 3 0 0 1 0.960938 0.345703 2 3 0 0 1 0.964843 3.607422 2 3 0 0 1-0.447265 1.109375 3 0.5 0 0 0-1.449219-0.0625 3 0.5 0 0 0-1.449219 0.0625 2 3 0 0 1-0.550781-2.0625h2l-1.595703-1.806641a2 3 0 0 1 1.566406-1.193359zm-7.970703 6a4 1 0 0 0 1 0.660156v1.583985c-0.3666898-0.206746-0.7067134-0.450854-1-0.744141v-1.5zm8 0v1.5c-0.293287 0.290995-0.63331 0.53406-1 0.740234v-1.580078a4 1 0 0 0 1-0.660156zm-6 0.865234a4 1 0 0 0 1 0.101563v1.945312c-0.3417758-0.051265-0.6764603-0.125506-1-0.230468v-1.816407zm4 0v1.802735c-0.324456 0.105792-0.657177 0.188038-1 0.240234v-1.941406a4 1 0 0 0 1-0.101563z" style="fill:#ffce66"/>
 <path d="m7 7c-2 0-3.4335938 2.0605469-3.4335938 2.0605469-0.3720724 0.935451-0.5642383 1.9327251-0.5664062 2.9394531 0 0.083687 0.0091674 0.164978 0.0117188 0.248047 0.0310822-0.920623 0.2137777-1.830397 0.5546874-2.6875001 0 0 1.4335938-2.0605469 3.4335938-2.0605469 1.0039062 0 4 2 4 2s3-2.00391 4-2c2 0 3.673828 2.755859 3.673828 2.755859 0.195661 0.664038 0.291594 1.351534 0.310547 2.042969 0.003699-0.099941 0.015625-0.197982 0.015625-0.298828-0.0016-0.75974-0.111439-1.515377-0.326172-2.2441406 0 0-1.673828-2.7558594-3.673828-2.7558594-1-0.0039062-4 2-4 2s-2.9960938-2-4-2zm-1.4199219 4.392578a2 3 0 0 0-0.1757812 0.300781l1.1542969 1.306641h0.4414062l-1.4199219-1.607422zm7.9999999 0a2 3 0 0 0-0.175781 0.300781l1.154297 1.306641h0.441406l-1.419922-1.607422zm-4.5878905 1.839844a2 3 0 0 1-0.0957031 0.720703 2 3 0 0 1-0.4472656 1.109375 3 0.5 0 0 0-1.4492188-0.0625 3 0.5 0 0 0-1.4492188 0.0625 2 3 0 0 1-0.5214843-1.5625h-0.0292969a2 3 0 0 0 0.5507812 2.0625 3 0.5 0 0 1 1.4492188-0.0625 3 0.5 0 0 1 1.4492188 0.0625 2 3 0 0 0 0.4472656-1.109375 2 3 0 0 0 0.0957031-1.220703zm8.0000005 0a2 3 0 0 1-0.095704 0.720703 2 3 0 0 1-0.447265 1.109375 3 0.5 0 0 0-1.449219-0.0625 3 0.5 0 0 0-1.449219 0.0625 2 3 0 0 1-0.521484-1.5625h-0.029297a2 3 0 0 0 0.550781 2.0625 3 0.5 0 0 1 1.449219-0.0625 3 0.5 0 0 1 1.449219 0.0625 2 3 0 0 0 0.447265-1.109375 2 3 0 0 0 0.095704-1.220703zm-9.992188 4.267578v0.5c0.2932866 0.293287 0.6333102 0.537395 1 0.744141v-0.5c-0.3666898-0.206746-0.7067134-0.450854-1-0.744141zm8 0c-0.293287 0.290995-0.63331 0.53406-1 0.740234v0.5c0.36669-0.206174 0.706713-0.449239 1-0.740234v-0.5zm-2 1.167969c-0.324456 0.105792-0.657177 0.188038-1 0.240234v0.5c0.342823-0.052196 0.675544-0.134442 1-0.240234v-0.5zm-4 0.013672v0.5c0.3235397 0.104962 0.6582242 0.179198 1 0.230468v-0.5c-0.3417758-0.05127-0.6764603-0.125506-1-0.230468z" style="fill:#ffffff;opacity:.2"/>
 <path d="m6 2c-3.1786586 1.758964-4.995145 5.3671222-5 9 0 0.094376 0.0110743 0.185549 0.0136719 0.279297 0.07671-3.5573281 1.8722662-7.0560787 4.9863281-8.779297-2.15e-4 -0.168277 0-0.2973212 0-0.5zm10 0c0 0.2045276 1.75e-4 0.3326879 0 0.5 3.11865 1.7239433 4.912407 5.2161011 4.986328 8.777344 0.002562-0.093099 0.013672-0.183626 0.013672-0.277344-0.00138-3.6379005-1.816165-7.2400235-5-9zm-10 1c2.15e-4 0.168277 8.6e-4 0.3757869 0 0.5 0 1.6568542 2.2385763 3 5 3 2.761424 0 5-1.3431458 5-3-7e-4 -0.1262241-1.75e-4 -0.3326879 0-0.5 0 1.6568542-2.238576 3-5 3-2.7614237 0-5-1.3431458-5-3z" style="fill:#ffffff;opacity:.1"/>
</svg>

<svg xmlns="http://www.w3.org/2000/svg" width="22" height="22" version="1.1">
 <path style="opacity:0.2" d="M 16,2.5 C 16,2.9091 15.999,3.2476 16,3.5 16,5.1569 13.761,6.5 11,6.5 8.2386,6.5 6,5.1569 6,3.5 6.0017,3.2516 6,2.9054 6,2.5 2.8213,4.259 1.0049,7.8671 1,11.5 1,17.023 5.4772,21.5 11,21.5 16.523,21.5 21,17.023 21,11.5 20.999,7.8621 19.184,4.26 16,2.5 Z"/>
 <path style="fill:#4f4f4f" d="M 16,2 C 16,2.4091 15.999,2.7476 16,3 16,4.6569 13.761,6 11,6 8.2386,6 6,4.6569 6,3 6.0017,2.7516 6,2.4054 6,2 2.8213,3.759 1.0049,7.3671 1,11 1,16.523 5.4772,21 11,21 16.523,21 21,16.523 21,11 20.999,7.3621 19.184,3.76 16,2 Z"/>
 <path style="opacity:0.2" d="M 7,7.5 C 5,7.5 3.5664,9.5605 3.5664,9.5605 3.1943,10.496 3.0022,11.493 3,12.5 3,16.918 6.5817,20.5 11,20.5 15.418,20.5 19,16.918 19,12.5 18.998,11.74 18.889,10.985 18.674,10.256 18.674,10.256 17,7.5 15,7.5 14,7.4961 11,9.5 11,9.5 11,9.5 8.0039,7.5 7,7.5 Z M 6.9707,10.5 A 2,3 0 0 1 7.9316,10.846 2,3 0 0 1 8.8965,14.453 2,3 0 0 1 8.4492,15.563 3,0.5 0 0 0 7,15.5 3,0.5 0 0 0 5.5508,15.563 2,3 0 0 1 5,13.5 H 7 L 5.4043,11.693 A 2,3 0 0 1 6.9707,10.5 Z M 14.971,10.5 A 2,3 0 0 1 15.932,10.846 2,3 0 0 1 16.896,14.453 2,3 0 0 1 16.449,15.563 3,0.5 0 0 0 15,15.5 3,0.5 0 0 0 13.551,15.563 2,3 0 0 1 13,13.5 H 15 L 13.404,11.693 A 2,3 0 0 1 14.971,10.5 Z M 7,16.5 A 4,1 0 0 0 8,17.16 V 18.744 C 7.6333,18.537 7.2933,18.293 7,18 Z M 15,16.5 V 18 C 14.707,18.291 14.367,18.534 14,18.74 V 17.16 A 4,1 0 0 0 15,16.5 Z M 9,17.365 A 4,1 0 0 0 10,17.467 V 19.412 C 9.6582,19.361 9.3235,19.287 9,19.182 Z M 13,17.365 V 19.168 C 12.676,19.274 12.343,19.356 12,19.408 V 17.467 A 4,1 0 0 0 13,17.365 Z"/>
 <path style="fill:#ffce66" d="M 7,7 C 5,7 3.5664,9.0605 3.5664,9.0605 3.1943,9.996 3.0022,10.993 3,12 3,16.418 6.5817,20 11,20 15.418,20 19,16.418 19,12 18.998,11.24 18.889,10.485 18.674,9.7559 18.674,9.7559 17,7 15,7 14,6.9961 11,9 11,9 11,9 8.0039,7 7,7 Z M 6.9707,10 A 2,3 0 0 1 7.9316,10.346 2,3 0 0 1 8.8965,13.953 2,3 0 0 1 8.4492,15.063 3,0.5 0 0 0 7,15 3,0.5 0 0 0 5.5508,15.063 2,3 0 0 1 5,13 H 7 L 5.4043,11.193 A 2,3 0 0 1 6.9707,10 Z M 14.971,10 A 2,3 0 0 1 15.932,10.346 2,3 0 0 1 16.896,13.953 2,3 0 0 1 16.449,15.063 3,0.5 0 0 0 15,15 3,0.5 0 0 0 13.551,15.063 2,3 0 0 1 13,13 H 15 L 13.404,11.193 A 2,3 0 0 1 14.971,10 Z M 7,16 A 4,1 0 0 0 8,16.66 V 18.244 C 7.6333,18.037 7.2933,17.793 7,17.5 Z M 15,16 V 17.5 C 14.707,17.791 14.367,18.034 14,18.24 V 16.66 A 4,1 0 0 0 15,16 Z M 9,16.865 A 4,1 0 0 0 10,16.967 V 18.912 C 9.6582,18.861 9.3235,18.787 9,18.682 Z M 13,16.865 V 18.668 C 12.676,18.774 12.343,18.856 12,18.908 V 16.967 A 4,1 0 0 0 13,16.865 Z"/>
 <path style="opacity:0.2;fill:#ffffff" d="M 7,7 C 5,7 3.5664,9.0605 3.5664,9.0605 3.1943,9.996 3.0022,10.993 3,12 3,12.084 3.0092,12.165 3.0117,12.248 3.0428,11.327 3.2255,10.418 3.5664,9.5605 3.5664,9.5605 5,7.5 7,7.5 8.0039,7.5 11,9.5 11,9.5 11,9.5 14,7.4961 15,7.5 17,7.5 18.674,10.256 18.674,10.256 18.869,10.92 18.965,11.607 18.984,12.299 18.988,12.199 19,12.101 19,12 18.998,11.24 18.889,10.485 18.674,9.7559 18.674,9.7559 17,7 15,7 14,6.9961 11,9 11,9 11,9 8.0039,7 7,7 Z M 5.5801,11.393 A 2,3 0 0 0 5.4043,11.693 L 6.5586,13 H 7 Z M 13.58,11.393 A 2,3 0 0 0 13.404,11.693 L 14.559,13 H 15 Z M 8.9922,13.232 A 2,3 0 0 1 8.8965,13.953 2,3 0 0 1 8.4492,15.063 3,0.5 0 0 0 7,15 3,0.5 0 0 0 5.5508,15.063 2,3 0 0 1 5.0293,13.5 H 5 A 2,3 0 0 0 5.5508,15.563 3,0.5 0 0 1 7,15.5 3,0.5 0 0 1 8.4492,15.563 2,3 0 0 0 8.8965,14.453 2,3 0 0 0 8.9922,13.232 Z M 16.992,13.232 A 2,3 0 0 1 16.896,13.953 2,3 0 0 1 16.449,15.063 3,0.5 0 0 0 15,15 3,0.5 0 0 0 13.551,15.063 2,3 0 0 1 13.029,13.5 H 13 A 2,3 0 0 0 13.551,15.563 3,0.5 0 0 1 15,15.5 3,0.5 0 0 1 16.449,15.563 2,3 0 0 0 16.896,14.453 2,3 0 0 0 16.992,13.232 Z M 7,17.5 V 18 C 7.2933,18.293 7.6333,18.537 8,18.744 V 18.244 C 7.6333,18.037 7.2933,17.793 7,17.5 Z M 15,17.5 C 14.707,17.791 14.367,18.034 14,18.24 V 18.74 C 14.367,18.534 14.707,18.291 15,18 Z M 13,18.668 C 12.676,18.774 12.343,18.856 12,18.908 V 19.408 C 12.343,19.356 12.676,19.274 13,19.168 Z M 9,18.682 V 19.182 C 9.3235,19.287 9.6582,19.361 10,19.412 V 18.912 C 9.6582,18.861 9.3235,18.787 9,18.682 Z"/>
 <path style="opacity:0.1;fill:#ffffff" d="M 6,2 C 2.8213,3.759 1.0049,7.3671 1,11 1,11.094 1.0111,11.186 1.0137,11.279 1.0904,7.722 2.8859,4.2232 6,2.5 5.9998,2.3317 6,2.2027 6,2 Z M 16,2 C 16,2.2045 16,2.3327 16,2.5 19.119,4.2239 20.912,7.7161 20.986,11.277 20.989,11.184 21,11.094 21,11 20.999,7.3621 19.184,3.76 16,2 Z M 6,3 C 6.0002,3.1683 6.0009,3.3758 6,3.5 6,5.1569 8.2386,6.5 11,6.5 13.761,6.5 16,5.1569 16,3.5 15.999,3.3738 16,3.1673 16,3 16,4.6569 13.761,6 11,6 8.2386,6 6,4.6569 6,3 Z"/>
</svg>
